X:1
T:Tallinn, CMD
T:Tallinn, CMD
T:Sanford Miller Brown, 1889
T:Public Domain Courtesy of the Cyber Hymnal™
C:Sanford Miller Brown, 1889
Z:Public Domain
Z:Courtesy of the Cyber Hymnal™
%%score ( 1 2 ) ( 3 4 )
L:1/8
Q:1/4=110
M:4/4
K:G
V:1 treble 
V:2 treble 
V:3 bass 
V:4 bass 
V:1
 D | G2 z G G2 z G | B2 B2 G2 z [GB] | [GB]2 ([GB][GB]) [DA]2 [EG]2 | [FA]6 z D | %5
 [DG]2 z [GB] [Gd]2 z [GB] | [FA]2 G2 [Ec]3 [Ec] | [DB]3 [DB] [DB]2 [DA]2 | [DG]6 [DG]2 | %9
 [EG]2 [Ec]2 [Ec]3 [Ec] | [Ec]2 [DB]2 [DB]3 [GB] | [FA]2 [FA]2 [GB]2 [G^c]2 | [Fd]6 D2 | %13
 G2 B2 d3 [GB] | [FA]2 G2 [Ge]3 [Ge] | [Fd]3 [GB] [FA]2 [FA]2 | G7 |] %17
V:2
 D | G2 G G2 G x2 | B2 B2 G2 x2 | x8 | x7 D | x8 | x2 G2 x4 | x8 | x8 | x8 | x8 | x8 | x6 D2 | %13
 G2 B2 d3 x | x2 G2 x4 | x8 | G7 |] %17
V:3
 D, | G,2 z G, G,2 z G, | B,2 B,2 G,2 z [G,D] | [G,D]2 ([G,D][G,D]) [F,D]2 [E,^C]2 | %4
 [D,D]6 z [G,B,] | [G,B,]2 z [G,D] [G,B,]2 z [G,D] | [D,C]2 [E,B,]2 [C,C]3 [C,G,] | %7
 [D,G,]3 [D,G,] [D,G,]2 [D,C]2 | [G,,G,B,]6 [G,B,]2 | [C,C]2 [C,G,]2 [C,G,]3 [C,G,] | %10
 G,2 G,2 G,3 [G,D] | [D,D]2 [D,D]2 [G,D]2 [E,A,]2 | [D,A,]6 D,2 | G,2 B,2 D3 [G,D] | %14
 [D,C]2 [E,B,]2 [C,C]3 [C,C] | [D,A,]3 [D,D] [D,C]2 [D,C]2 | [G,,G,B,]7 |] %17
V:4
 D, | G,2 G, G,2 G, x2 | B,2 B,2 G,2 x2 | x8 | x8 | x8 | x8 | x8 | x8 | x8 | G,2 G,2 G,3 x | x8 | %12
 x6 D,2 | G,2 B,2 D3 x | x8 | x8 | x7 |] %17

